X:1
T:Ramble, My Son
M:4/4
L:1/8
K:C
 G2| B2 GE D2 B,D| E2 GG G3 G| G2 BB B d2 B| c2 BA| E3 A| A2 AA B d2 d/2B/2|\
 A2 GA B2 BA| B2 GE D2 B,D| E2 GG| G2||
